Simply black circles/scalable/mimes/image-png.svg

<?xml version="1.0" encoding="UTF-8" standalone="no"?>
<!-- Created with Inkscape (http://www.inkscape.org/) -->

<svg
   xmlns:dc="http://purl.org/dc/elements/1.1/"
   xmlns:cc="http://creativecommons.org/ns#"
   xmlns:rdf="http://www.w3.org/1999/02/22-rdf-syntax-ns#"
   xmlns:svg="http://www.w3.org/2000/svg"
   xmlns="http://www.w3.org/2000/svg"
   xmlns:xlink="http://www.w3.org/1999/xlink"
   xmlns:sodipodi="http://sodipodi.sourceforge.net/DTD/sodipodi-0.dtd"
   xmlns:inkscape="http://www.inkscape.org/namespaces/inkscape"
   version="1.1"
   width="48"
   height="48"
   id="svg21744"
   sodipodi:docname="image-png.svg"
   inkscape:version="0.92.3 (2405546, 2018-03-11)">
  <sodipodi:namedview
     pagecolor="#ffffff"
     bordercolor="#666666"
     borderopacity="1"
     objecttolerance="10"
     gridtolerance="10"
     guidetolerance="10"
     inkscape:pageopacity="0"
     inkscape:pageshadow="2"
     inkscape:window-width="1366"
     inkscape:window-height="690"
     id="namedview44"
     showgrid="false"
     inkscape:zoom="1.2890625"
     inkscape:cx="14.652139"
     inkscape:cy="24"
     inkscape:window-x="0"
     inkscape:window-y="28"
     inkscape:window-maximized="1"
     inkscape:current-layer="svg21744"
     inkscape:snap-global="false"
     showguides="true"
     inkscape:guide-bbox="true" />
  <defs
     id="defs21746">
    <linearGradient
       x1="525.4375"
       y1="836.1875"
       x2="516.65625"
       y2="828.5"
       id="linearGradient14113"
       xlink:href="#linearGradient14494-2-7"
       gradientUnits="userSpaceOnUse"
       gradientTransform="translate(-125.5,-1702.64)" />
    <linearGradient
       id="linearGradient14494-2-7">
      <stop
         id="stop14496-9-3"
         style="stop-color:#dc85e9;stop-opacity:1"
         offset="0" />
      <stop
         id="stop14498-9-7"
         style="stop-color:#f2cbf8;stop-opacity:1"
         offset="1" />
    </linearGradient>
    <linearGradient
       x1="520.58502"
       y1="735.05206"
       x2="516.15179"
       y2="720.86298"
       id="linearGradient14115"
       xlink:href="#linearGradient14494-5"
       gradientUnits="userSpaceOnUse" />
    <linearGradient
       id="linearGradient14494-5">
      <stop
         id="stop14496-5"
         style="stop-color:#dc85e9;stop-opacity:1"
         offset="0" />
      <stop
         id="stop14498-1"
         style="stop-color:#f2cbf8;stop-opacity:1"
         offset="1" />
    </linearGradient>
    <linearGradient
       x1="525.4375"
       y1="836.1875"
       x2="516.65625"
       y2="828.5"
       id="linearGradient54948"
       xlink:href="#linearGradient14494-2-7"
       gradientUnits="userSpaceOnUse"
       gradientTransform="translate(-462.50049,-802.00385)" />
    <linearGradient
       x1="520.58502"
       y1="735.05206"
       x2="516.15179"
       y2="720.86298"
       id="linearGradient14109"
       xlink:href="#linearGradient14494-5"
       gradientUnits="userSpaceOnUse"
       gradientTransform="matrix(0.512535,0,0,0.615385,-202.35949,-422.92385)" />
    <linearGradient
       x1="525.4375"
       y1="836.1875"
       x2="516.65625"
       y2="828.5"
       id="linearGradient54952"
       xlink:href="#linearGradient14494-2-7"
       gradientUnits="userSpaceOnUse"
       gradientTransform="translate(-462.50049,-797.50385)" />
    <linearGradient
       x1="209.0625"
       y1="-765.46082"
       x2="209.0625"
       y2="-781.62268"
       id="linearGradient44039"
       xlink:href="#linearGradient15606-1"
       gradientUnits="userSpaceOnUse"
       gradientTransform="matrix(1.5,0,0,1.5,-364.99949,1176.9562)" />
    <linearGradient
       id="linearGradient15606-1">
      <stop
         id="stop15608-0"
         style="stop-color:#ffffff;stop-opacity:0.58823502"
         offset="0" />
      <stop
         id="stop15610-5"
         style="stop-color:#ffffff;stop-opacity:0.86274499"
         offset="1" />
    </linearGradient>
    <linearGradient
       x1="294.3429"
       y1="256.58133"
       x2="294.41818"
       y2="243.13852"
       id="linearGradient44042"
       xlink:href="#linearGradient10286-3"
       gradientUnits="userSpaceOnUse"
       gradientTransform="matrix(2.99213,0,0,3.00466,-830.71149,-727.44385)" />
    <linearGradient
       id="linearGradient10286-3">
      <stop
         id="stop10288-8"
         style="stop-color:#b3b3b3;stop-opacity:1"
         offset="0" />
      <stop
         id="stop10290-7"
         style="stop-color:#e6e6e6;stop-opacity:1"
         offset="1" />
    </linearGradient>
    <linearGradient
       x1="110.96875"
       y1="976.29968"
       x2="110.96875"
       y2="992.375"
       id="linearGradient43236"
       xlink:href="#linearGradient4145-42"
       gradientUnits="userSpaceOnUse" />
    <linearGradient
       id="linearGradient4145-42">
      <stop
         id="stop4953"
         style="stop-color:#e694bb;stop-opacity:1"
         offset="0" />
      <stop
         id="stop4955"
         style="stop-color:#d3819a;stop-opacity:1"
         offset="0.26238" />
      <stop
         id="stop4957"
         style="stop-color:#b25a64;stop-opacity:1"
         offset="0.704952" />
      <stop
         id="stop4959"
         style="stop-color:#98313d;stop-opacity:1"
         offset="1" />
    </linearGradient>
    <linearGradient
       x1="110.96875"
       y1="976.29968"
       x2="110.99982"
       y2="991.87488"
       id="linearGradient14097-7"
       xlink:href="#linearGradient4145-42"
       gradientUnits="userSpaceOnUse"
       gradientTransform="matrix(1,0,0,1.00011,0,-0.10551)" />
    <linearGradient
       x1="110.96875"
       y1="976.29968"
       x2="110.96875"
       y2="992.375"
       id="linearGradient21742"
       xlink:href="#linearGradient4145-42"
       gradientUnits="userSpaceOnUse"
       gradientTransform="matrix(1.00399,0,0,1.00959,-1.1658,-9.36636)" />
    <clipPath
       clipPathUnits="userSpaceOnUse"
       id="clipPath867">
      <g
         inkscape:label="Clip"
         id="use869">
        <path
           d="m 47.000614,3.0210706 v 0.75 40.5000404 0.72723 h 0.75 32.499399 0.75 v -0.72723 -25.50003 -0.3282 l -0.2344,-0.2343 -14.9059,-15.0000104 -0.1875,-0.1875 h -0.3282 -17.593399 z"
           id="path875"
           style="color:#000000;font-style:normal;font-variant:normal;font-weight:normal;font-stretch:normal;font-size:medium;line-height:normal;font-family:'Andale Mono';text-indent:0pt;text-align:start;text-decoration:none;text-decoration-line:none;letter-spacing:normal;word-spacing:normal;text-transform:none;direction:ltr;text-anchor:start;display:inline;overflow:visible;visibility:visible;fill:#000000;fill-opacity:1;fill-rule:nonzero;stroke:none;stroke-width:1;marker:none"
           inkscape:connector-curvature="0" />
      </g>
    </clipPath>
  </defs>
  <metadata
     id="metadata21749">
    <rdf:RDF>
      <cc:Work
         rdf:about="">
        <dc:format>image/svg+xml</dc:format>
        <dc:type
           rdf:resource="http://purl.org/dc/dcmitype/StillImage" />
        <dc:title></dc:title>
      </cc:Work>
    </rdf:RDF>
  </metadata>
  <path
     style="fill:#1a1a1a;fill-opacity:1;stroke-width:0.70209807"
     d="M 35.234375 2.8164062 C 34.098319 2.8153556 32.965797 3.1012688 31.966797 3.7148438 C 29.141197 5.3432437 28.262262 9.5811343 30.226562 12.240234 C 31.807962 14.629673 35.009591 15.341659 37.587891 14.480469 C 39.806791 13.768069 41.097155 11.363094 41.015625 9.0585938 L 36.427734 9.0585938 C 36.006044 9.0620937 36.325472 9.8268493 36.226562 10.162109 L 39.298828 10.162109 C 40.354018 10.047609 39.223814 11.759131 38.896484 12.207031 C 36.755884 14.78163 32.234256 13.94653 30.847656 10.957031 C 29.651656 8.7498312 30.632047 5.7356875 32.810547 4.6171875 C 34.929746 3.3490875 37.696059 4.0428531 39.380859 5.7519531 C 39.705279 5.9370631 40.033485 5.2171237 40.359375 5.0273438 C 39.03375 3.6167875 37.127802 2.8181573 35.234375 2.8164062 z M 11.527344 2.8242188 C 10.691431 2.815295 9.851375 2.8505669 9.015625 2.8261719 L 9.015625 14.648438 C 9.123415 14.979548 9.809665 14.72177 10.140625 14.8125 L 10.140625 9.2441406 C 11.729325 9.1778306 13.452175 9.4913806 14.859375 8.5253906 C 16.647375 7.1885906 16.163175 3.7018906 14.015625 3.0878906 C 13.195025 2.8860106 12.363256 2.8331425 11.527344 2.8242188 z M 26.537109 2.828125 C 26.309092 2.8453913 26.053449 2.8924531 25.886719 2.8457031 L 25.886719 12.009766 L 18.949219 3.6679688 C 18.630029 3.4124488 18.469405 2.7929131 18.015625 2.8457031 L 18.015625 14.818359 L 19.201172 14.818359 L 19.201172 5.7675781 C 21.492172 8.5108781 23.783219 11.254848 26.074219 13.998047 C 26.395329 14.255857 26.557115 14.876189 27.015625 14.818359 L 27.015625 2.9921875 C 26.964525 2.8246325 26.765127 2.8108587 26.537109 2.828125 z M 11.785156 3.9902344 C 12.332469 3.9863819 12.878725 4.0038606 13.421875 4.1035156 C 14.988875 4.3888056 15.297175 6.9549813 13.921875 7.7382812 C 12.731975 8.3114112 11.406125 8.0156962 10.140625 8.0664062 L 10.140625 4.0058594 C 10.689425 4.0198544 11.237844 3.9940869 11.785156 3.9902344 z M 7.0605469 16.425781 L 3.7890625 18.833984 L 1.0019531 20.882812 L 3.0507812 23.669922 L 16.886719 42.474609 L 16.886719 46.546875 L 16.898438 46.546875 L 16.898438 47.851562 L 45.507812 47.851562 L 45.507812 47.796875 L 45.523438 47.796875 L 45.523438 18.007812 L 45.429688 18.007812 L 45.429688 18.003906 L 34.439453 18.003906 L 33.34375 16.513672 L 29.037109 16.5 L 30.144531 18.005859 L 20.34375 18.005859 L 16.886719 18.005859 L 16.886719 21.464844 L 16.886719 36.630859 L 5.8398438 21.619141 L 12.869141 16.447266 L 29.037109 16.5 L 7.0605469 16.425781 z M 20.34375 21.464844 L 42.066406 21.464844 L 42.066406 41.390625 L 20.388672 41.390625 L 20.34375 41.328125 L 20.34375 21.464844 z "
     id="path863" />
</svg>

<svg xmlns="http://www.w3.org/2000/svg" width="48" height="48"><defs><linearGradient id="a"><stop offset="0" stop-color="#dc85e9"/><stop offset="1" stop-color="#f2cbf8"/></linearGradient><linearGradient id="b"><stop offset="0" stop-color="#dc85e9"/><stop offset="1" stop-color="#f2cbf8"/></linearGradient><linearGradient id="c"><stop offset="0" stop-color="#fff" stop-opacity=".588"/><stop offset="1" stop-color="#fff" stop-opacity=".863"/></linearGradient><linearGradient id="d"><stop offset="0" stop-color="#b3b3b3"/><stop offset="1" stop-color="#e6e6e6"/></linearGradient><linearGradient id="e"><stop offset="0" stop-color="#e694bb"/><stop offset=".262" stop-color="#d3819a"/><stop offset=".705" stop-color="#b25a64"/><stop offset="1" stop-color="#98313d"/></linearGradient></defs><path d="M35.234 2.816a6.204 6.204 0 0 0-3.267.899c-2.826 1.628-3.705 5.866-1.74 8.525 1.581 2.39 4.783 3.102 7.36 2.24 2.22-.712 3.51-3.117 3.429-5.421h-4.588c-.422.003-.103.768-.201 1.103h3.072c1.055-.114-.075 1.597-.403 2.045-2.14 2.575-6.662 1.74-8.048-1.25-1.196-2.207-.216-5.221 1.963-6.34 2.119-1.268 4.885-.574 6.57 1.135.324.185.652-.535.978-.725a7.123 7.123 0 0 0-5.125-2.21zm-23.707.008c-.836-.009-1.676.027-2.511.002v11.822c.107.332.794.074 1.125.165V9.244c1.588-.066 3.311.247 4.718-.719 1.788-1.336 1.304-4.823-.843-5.437-.821-.202-1.653-.255-2.489-.264zm15.01.004c-.228.017-.484.064-.65.018v9.164l-6.938-8.342c-.319-.256-.48-.875-.933-.822v11.972H19.2v-9.05l6.873 8.23c.321.258.483.878.942.82V2.992c-.051-.167-.25-.181-.479-.164zM11.785 3.99c.547-.004 1.094.014 1.637.114 1.567.285 1.875 2.851.5 3.634-1.19.573-2.516.278-3.781.328v-4.06c.548.014 1.097-.012 1.644-.016zM7.061 16.426l-3.272 2.408-2.787 2.049 2.049 2.787 13.836 18.805v4.072h.011v1.305h28.61v-.055h.015v-29.79h-.093v-.003H34.44l-1.096-1.49-4.307-.014 1.108 1.506H16.887V36.63L5.84 21.619l7.03-5.172 16.167.053-21.976-.074zm13.283 5.039h21.722V41.39H20.39l-.045-.063V21.465z" fill="#1a1a1a"/></svg>
